X:143
%%etbk:tnset id:50,pos:3,rep:3x,ant:
%%etbk:wsite http://www.thesession.org/tunes/display/4305
%%etbk:skill ?
%%etbk:pldat 2013-05-15T16:18
T: Cashmere Shawl, The
Z: Piano Box Version by Martin Fleischmann
H: Created 2013-02-19 /  Last Modified 2013-02-19
M: 4/4
L: 1/8
R: reel
K: Ador
|: "am"!3!A3B !3!A!2!G!1!EG | !3!AGAB "em"!5!ccBc | "am"!3!A3B AG!1!E!4!f |1 "G"!5!g!3!e!2!d!1!B !2!c{e}c!1!Bc:|2 "G"!5!g!3!e!2!d!1!B !2!c2cd||
"C"!4!!3!e3!5!g !3!edBd | !3!e2ge "G"!2!d{f}d!1!B!2!d | "C"!3!e3!5!g !3!edBd | !3!efge "G"!2!d2Bd |
"C"!3!e!2!e!3!e!3!g !3!edBd | !3!e!5!gge "G"!2!d{f}dBd | "C"!3!e!5!gg!2!d !3!e!5!aa!3!e | "am"!5!g!3!e!2!d!1!B !2!c{e}c!1!Bc||
